packages/foundations/assets/icons/functional/images/maps/station_16_filled.svg

<svg width="16" height="16" viewBox="0 0 16 16" fill="none" xmlns="http://www.w3.org/2000/svg">
<g clip-path="url(#clip0_2213_5317)">
<path fill-rule="evenodd" clip-rule="evenodd" d="M7.99998 1.59998C11.5346 1.59998 14.4 4.46535 14.4 7.99998C14.4 11.5346 11.5346 14.4 7.99998 14.4C4.46535 14.4 1.59998 11.5346 1.59998 7.99998C1.59998 4.46535 4.46535 1.59998 7.99998 1.59998ZM10.0108 4.80118C9.59521 4.80118 9.25832 5.13801 9.25824 5.55358L9.25792 7.35398H6.74112L6.74144 5.55358C6.74151 5.16779 6.40472 4.80118 5.98918 4.80118C5.57364 4.80118 5.23678 5.13804 5.23678 5.55358V10.4464C5.23678 10.8619 5.57364 11.1988 5.98918 11.1988C6.40464 11.1988 6.74145 10.862 6.74145 10.4465L6.74112 8.48838H9.25792L9.25825 10.4464C9.25832 10.8619 9.59522 11.1988 10.0108 11.1988C10.4263 11.1988 10.7632 10.8619 10.7632 10.4464V5.55358C10.7632 5.13804 10.4263 4.80118 10.0108 4.80118Z" fill="#1A1C1F"/>
</g>
<defs>
<clipPath id="clip0_2213_5317">
<rect width="16" height="16" fill="white"/>
</clipPath>
</defs>
</svg>

<svg xmlns="http://www.w3.org/2000/svg" width="16" height="16" fill="none"><g clip-path="url(#a)"><path fill="#1A1C1F" fill-rule="evenodd" d="M8 1.6a6.4 6.4 0 1 1 0 12.8A6.4 6.4 0 0 1 8 1.6m2.01 3.201a.753.753 0 0 0-.752.753v1.8H6.74v-1.8A.77.77 0 0 0 5.99 4.8a.75.75 0 0 0-.752.753v4.892a.752.752 0 0 0 1.504 0V8.489h2.517v1.958a.753.753 0 0 0 1.505 0V5.554a.75.75 0 0 0-.752-.753" clip-rule="evenodd"/></g><defs><clipPath id="a"><path fill="#fff" d="M0 0h16v16H0z"/></clipPath></defs></svg>
